X: 13
T:Letter from Home (#213), A
M:4/4
L:1/8
S:Capt. F. O'Neill
R:Reel
K:G
GA|B2 BA Bd d2|efed eg g2|BcBA GABG|AGEF G2:|
ef|gfed edBd|gfed e2 ef|gfed edBA|BGEF G2 ef|
gfed edBA|gfed e2 ef|gbag fagf|edef g2||

